components/2.0/icon/icons/icon-image-22px.svg

<?xml version="1.0" encoding="UTF-8" standalone="no"?>
<svg width="22px" height="22px" viewBox="0 0 22 22" version="1.1" xmlns="http://www.w3.org/2000/svg" xmlns:xlink="http://www.w3.org/1999/xlink" xmlns:sketch="http://www.bohemiancoding.com/sketch/ns">
    <!-- Generator: Sketch 3.4.4 (17249) - http://www.bohemiancoding.com/sketch -->
    <title>icon-image-22px</title>
    <desc>Created with Sketch.</desc>
    <defs></defs>
    <g id="22px" stroke="none" stroke-width="1" fill="none" fill-rule="evenodd" sketch:type="MSPage">
        <g id="icon-image-22px" sketch:type="MSArtboardGroup" fill="#3D4752">
            <path d="M2,20 L20,20 L20,2 L2,2 L2,20 Z M4,4 L18,4 L18,18 L4,18 L4,4 Z M4,18 L4,16 L8,11 L12,14 L15,9 L18,14 L18,18 L4,18 Z" id="Fill-1" sketch:type="MSShapeGroup"></path>
            <path d="M11,7 C11,8.105 10.105,9 9,9 C7.895,9 7,8.105 7,7 C7,5.895 7.895,5 9,5 C10.105,5 11,5.895 11,7" id="Fill-3" sketch:type="MSShapeGroup"></path>
        </g>
    </g>
</svg>

<svg width="22" height="22" xmlns="http://www.w3.org/2000/svg"><g fill="#3D4752" fill-rule="evenodd"><path d="M2 20h18V2H2v18zM4 4h14v14H4V4zm0 14v-2l4-5 4 3 3-5 3 5v4H4z"/><path d="M11 7c0 1-1 2-2 2S7 8 7 7s1-2 2-2 2 1 2 2"/></g></svg>
